icons/shared-project.svg

<svg width="25" height="24" viewBox="0 0 25 24" fill="none" xmlns="http://www.w3.org/2000/svg">
<path d="M17.7466 4.5C18.8511 4.5 19.7466 5.39543 19.7466 6.5V12C19.7466 12.5523 20.1943 13 20.7466 13C21.2989 13 21.7466 12.5523 21.7466 12V6.5C21.7466 4.29086 19.9557 2.5 17.7466 2.5H6.74658C4.53744 2.5 2.74658 4.29086 2.74658 6.5V17.5C2.74658 19.7091 4.53744 21.5 6.74658 21.5H11.7466C12.2989 21.5 12.7466 21.0523 12.7466 20.5C12.7466 19.9477 12.2989 19.5 11.7466 19.5H6.74658C5.64201 19.5 4.74658 18.6046 4.74658 17.5L4.74658 6.5C4.74658 5.39543 5.64201 4.5 6.74658 4.5L17.7466 4.5Z" fill="#9AA1B4"/>
<path d="M15.2466 10C15.2466 10.5523 15.6943 11 16.2466 11C16.7989 11 17.2466 10.5523 17.2466 10V8C17.2466 7.44772 16.7989 7 16.2466 7C15.6943 7 15.2466 7.44772 15.2466 8V10Z" fill="#9AA1B4"/>
<path d="M12.2466 15C11.6943 15 11.2466 14.5523 11.2466 14V8C11.2466 7.44772 11.6943 7 12.2466 7C12.7989 7 13.2466 7.44772 13.2466 8V14C13.2466 14.5523 12.7989 15 12.2466 15Z" fill="#9AA1B4"/>
<path d="M7.24658 12C7.24658 12.5523 7.6943 13 8.24658 13C8.79887 13 9.24658 12.5523 9.24658 12V8C9.24658 7.44772 8.79887 7 8.24658 7C7.6943 7 7.24658 7.44772 7.24658 8V12Z" fill="#9AA1B4"/>
<path fill-rule="evenodd" clip-rule="evenodd" d="M18.0759 20C17.2067 20 16.4645 20.5551 16.1894 21.3332C16.0054 21.854 15.4341 22.1269 14.9134 21.9428C14.3926 21.7588 14.1197 21.1875 14.3038 20.6668C14.5688 19.917 15.0512 19.2693 15.6755 18.8001C15.2989 18.2987 15.0757 17.6754 15.0757 17C15.0757 15.3431 16.4188 14 18.0757 14C19.7325 14 21.0757 15.3431 21.0757 17C21.0757 17.6753 20.8526 18.2985 20.476 18.7999C21.1005 19.2691 21.583 19.9169 21.848 20.6668C22.0321 21.1875 21.7592 21.7588 21.2384 21.9428C20.7177 22.1269 20.1464 21.854 19.9624 21.3332C19.6873 20.5551 18.9452 20 18.0759 20ZM17.0757 17C17.0757 16.4477 17.5234 16 18.0757 16C18.628 16 19.0757 16.4477 19.0757 17C19.0757 17.5523 18.628 18 18.0757 18C17.5234 18 17.0757 17.5523 17.0757 17Z" fill="#9AA1B4"/>
</svg>

<?xml version="1.0" encoding="utf-8"?>
<!-- Generator: Adobe Illustrator 22.1.0, SVG Export Plug-In . SVG Version: 6.00 Build 0)  -->
<svg version="1.1" id="Layer_1" xmlns="http://www.w3.org/2000/svg" xmlns:xlink="http://www.w3.org/1999/xlink" x="0px" y="0px"
	 viewBox="0 0 25 24" style="enable-background:new 0 0 25 24;" xml:space="preserve">
<style type="text/css">
	.st0{fill:#9AA1B4;}
</style>
<path class="st0" d="M17.7,4.5c1.1,0,2,0.9,2,2V12c0,0.6,0.4,1,1,1c0.6,0,1-0.4,1-1V6.5c0-2.2-1.8-4-4-4h-11c-2.2,0-4,1.8-4,4v11
	c0,2.2,1.8,4,4,4h5c0.6,0,1-0.4,1-1s-0.4-1-1-1h-5c-1.1,0-2-0.9-2-2v-11c0-1.1,0.9-2,2-2H17.7z"/>
<path class="st0" d="M15.2,10c0,0.6,0.4,1,1,1c0.6,0,1-0.4,1-1V8c0-0.6-0.4-1-1-1c-0.6,0-1,0.4-1,1V10z"/>
<path class="st0" d="M12.2,15c-0.6,0-1-0.4-1-1V8c0-0.6,0.4-1,1-1c0.6,0,1,0.4,1,1v6C13.2,14.6,12.8,15,12.2,15z"/>
<path class="st0" d="M7.2,12c0,0.6,0.4,1,1,1c0.6,0,1-0.4,1-1V8c0-0.6-0.4-1-1-1c-0.6,0-1,0.4-1,1V12z"/>
<path class="st0" d="M21.8,20.7c-0.3-0.7-0.7-1.4-1.4-1.9c0.4-0.5,0.6-1.1,0.6-1.8c0-1.7-1.3-3-3-3c-1.7,0-3,1.3-3,3
	c0,0.7,0.2,1.3,0.6,1.8c-0.6,0.5-1.1,1.1-1.4,1.9c-0.2,0.5,0.1,1.1,0.6,1.3c0.5,0.2,1.1-0.1,1.3-0.6c0.3-0.8,1-1.3,1.9-1.3
	c0.9,0,1.6,0.6,1.9,1.3c0.2,0.5,0.8,0.8,1.3,0.6C21.8,21.8,22,21.2,21.8,20.7z M18.1,18c-0.6,0-1-0.4-1-1s0.4-1,1-1s1,0.4,1,1
	S18.6,18,18.1,18z"/>
</svg>
